!!!OTL: Die zehnte Tochter Stoji, Stoji mi beli grad,
!!!ARE: Europa, Suedosteuropa, Jugoslavija, Slowenien, Ribnica / Reifnitz
!!!YOR: 5, S. 63
!!    1881 gedruckt in Zagreb
!!!SCT: Q2094B
!!!YEM: Copyright 1995, estate of Helmut Schaffrath.
**kern
*ICvox
*Ivox
*M2/4
*k[f#]
*G:
=1
{4d
4g
=2
4b
4a
=3
8cc
8a
8g
16g
16b
=4
4.a
8r}
=5
{4d
4g
=6
4b
4a
=7
8cc
8a
8g
16g
16b
=8
4.a
8r}
=9
{4f#
16f#
16a
16dd
16b
=10
4b
8a
8g
=11
4f#
4a
=12
4.g
8r}
=13
{4f#
16f#
16a
16dd
16b
=14
4b
8a
8g
=15
4f#
4a
=16
4.g
8r}
==
!!!AGN: Ballade, mythologisch, Vertreibung
!! Slowenische Fassung der Ballade.
!!!ONB: ESAC (Essen Associative Code) Database: BALLADE
!!!AMT: simple duple
!!!AIN: vox
!!!EED: Helmut Schaffrath
!!!EEV: 1.0
*-
